svgs/thin/square-p.svg

<svg xmlns="http://www.w3.org/2000/svg" viewBox="0 0 448 512"><!-- Font Awesome Pro 6.0.0-alpha2 by @fontawesome - https://fontawesome.com License - https://fontawesome.com/license (Commercial License) --><path d="M384 32H64C28.654 32 0 60.654 0 96V416C0 451.346 28.654 480 64 480H384C419.346 480 448 451.346 448 416V96C448 60.654 419.346 32 384 32ZM432 416C432 442.467 410.467 464 384 464H64C37.533 464 16 442.467 16 416V96C16 69.533 37.533 48 64 48H384C410.467 48 432 69.533 432 96V416ZM248 128H136C131.594 128 128 131.578 128 136V376C128 380.422 131.594 384 136 384S144 380.422 144 376V304H248C296.531 304 336 264.531 336 216S296.531 128 248 128ZM248 288H144V144H248C287.688 144 320 176.297 320 216S287.688 288 248 288Z"/></svg>

<svg xmlns="http://www.w3.org/2000/svg" viewBox="0 0 448 512"><!--! Font Awesome Pro 6.3.0 by @fontawesome - https://fontawesome.com License - https://fontawesome.com/license (Commercial License) Copyright 2023 Fonticons, Inc. --><path d="M384 32H64C28.65 32 0 60.65 0 96v320c0 35.35 28.65 64 64 64h320c35.35 0 64-28.65 64-64V96C448 60.65 419.3 32 384 32zM432 416c0 26.47-21.53 48-48 48H64c-26.47 0-48-21.53-48-48V96c0-26.47 21.53-48 48-48h320c26.47 0 48 21.53 48 48V416zM248 128h-112C131.6 128 128 131.6 128 136v240C128 380.4 131.6 384 136 384s8-3.578 8-8V304h104c48.53 0 88-39.47 88-88S296.5 128 248 128zM248 288H144V144h104C287.7 144 320 176.3 320 216S287.7 288 248 288z"/></svg>
